public/icon/game.svg

<svg width="34" height="25" viewBox="0 0 34 25" fill="none" xmlns="http://www.w3.org/2000/svg">
<path d="M26.2572 0.699711C22.9136 -0.296473 21.8636 1.59103 17.1869 1.59103C12.5103 1.59103 11.4603 -0.303963 8.11665 0.699711C4.773 1.6959 3.1049 5.22374 1.52617 11.845C-0.0525686 18.4737 0.237859 23.2599 2.09958 24.1512C3.96129 25.0426 6.06131 22.9978 8.06452 20.4736C9.68794 18.4962 10.4996 18.3689 17.1869 18.3689C23.8668 18.3689 24.5593 18.4213 26.3093 20.4736C28.3126 22.9978 30.4126 25.0426 32.2743 24.1512C34.136 23.2599 34.4264 18.4737 32.8477 11.845C31.269 5.22374 29.5934 1.70339 26.2572 0.699711ZM7.66983 12.9535C6.05386 12.9535 4.74322 11.6278 4.74322 9.98745C4.74322 8.3546 6.05386 7.02136 7.66983 7.02136C9.2858 7.02136 10.5965 8.3546 10.5965 9.98745C10.5965 11.6203 9.2858 12.9535 7.66983 12.9535ZM21.1859 11.448C20.3965 11.448 19.7487 10.7964 19.7487 9.99494C19.7487 9.1935 20.3965 8.54186 21.1859 8.54186C21.9827 8.54186 22.6306 9.1935 22.6306 9.99494C22.6231 10.7964 21.9827 11.448 21.1859 11.448ZM24.3285 14.6238C23.5391 14.6238 22.8912 13.9722 22.8912 13.1707C22.8912 12.3618 23.5391 11.7177 24.3285 11.7177C25.1253 11.7177 25.7732 12.3693 25.7732 13.1707C25.7732 13.9797 25.1253 14.6238 24.3285 14.6238ZM24.3285 8.26472C23.5391 8.26472 22.8912 7.61308 22.8912 6.81164C22.8912 6.0102 23.5391 5.35856 24.3285 5.35856C25.1253 5.35856 25.7732 6.0102 25.7732 6.81164C25.7732 7.61308 25.1253 8.26472 24.3285 8.26472ZM27.4785 11.448C26.6817 11.448 26.0413 10.7964 26.0413 9.99494C26.0413 9.1935 26.6891 8.54186 27.4785 8.54186C28.2679 8.54186 28.9158 9.1935 28.9158 9.99494C28.9158 10.7964 28.2753 11.448 27.4785 11.448Z" fill="url(#paint0_linear_104_2822)"/>
<defs>
<linearGradient id="paint0_linear_104_2822" x1="0.502441" y1="12.3851" x2="33.8714" y2="12.3851" gradientUnits="userSpaceOnUse">
<stop stop-color="#3068D0"/>
<stop offset="0.5" stop-color="#836BAF"/>
<stop offset="1" stop-color="#978262"/>
</linearGradient>
</defs>
</svg>

<svg width="34" height="25" fill="none" xmlns="http://www.w3.org/2000/svg"><path d="M26.257.7c-3.343-.996-4.393.891-9.07.891-4.677 0-5.727-1.895-9.07-.891-3.344.996-5.012 4.524-6.59 11.145-1.58 6.629-1.29 11.415.573 12.306 1.861.892 3.961-1.153 5.965-3.677 1.623-1.978 2.435-2.105 9.122-2.105 6.68 0 7.372.052 9.122 2.105 2.004 2.524 4.104 4.569 5.965 3.677 1.862-.891 2.152-5.677.574-12.306C31.269 5.224 29.593 1.703 26.258.7ZM7.67 12.953c-1.616 0-2.927-1.325-2.927-2.966 0-1.632 1.31-2.966 2.927-2.966 1.616 0 2.927 1.334 2.927 2.966 0 1.633-1.311 2.966-2.927 2.966Zm13.516-1.505c-.79 0-1.437-.652-1.437-1.453s.648-1.453 1.437-1.453a1.45 1.45 0 0 1 1.445 1.453 1.455 1.455 0 0 1-1.445 1.453Zm3.142 3.176c-.789 0-1.437-.652-1.437-1.453 0-.81.648-1.453 1.438-1.453a1.45 1.45 0 0 1 1.444 1.453c0 .809-.648 1.453-1.445 1.453Zm0-6.36c-.789 0-1.437-.65-1.437-1.452 0-.802.648-1.453 1.438-1.453a1.45 1.45 0 0 1 1.444 1.453 1.45 1.45 0 0 1-1.445 1.453Zm3.15 3.184a1.444 1.444 0 0 1-1.437-1.453c0-.801.648-1.453 1.438-1.453.789 0 1.437.652 1.437 1.453s-.64 1.453-1.438 1.453Z" fill="url(#a)"/><defs><linearGradient id="a" x1=".502" y1="12.385" x2="33.871" y2="12.385" gradientUnits="userSpaceOnUse"><stop stop-color="#3068D0"/><stop offset=".5" stop-color="#836BAF"/><stop offset="1" stop-color="#978262"/></linearGradient></defs></svg>
